lib/logo_tmp/nrk-logo-nrk-p1-pluss.svg

<svg width="74" height="16" viewBox="0 0 74 16" fill="none" xmlns="http://www.w3.org/2000/svg">
<path d="M6.10352e-05 15V1.00123H4.59345V15H6.10352e-05ZM10.8428 3.2292L13.4845 15H8.45743L5.30313 1.00123H8.1226C8.76913 0.99284 9.39647 1.22075 9.88698 1.64208C10.3783 2.04574 10.7158 2.60611 10.8428 3.2292ZM14.1745 15V1.00123H18.7679V15H14.1745ZM22.2373 6.32474C21.7423 6.32957 21.2553 6.20006 20.828 5.95008C20.4065 5.70643 20.0563 5.35624 19.8127 4.93466C19.5625 4.50735 19.4329 4.02018 19.4379 3.525C19.4322 3.03283 19.5618 2.54857 19.8127 2.12512C20.0589 1.70811 20.4087 1.36174 20.828 1.11957C21.2554 0.869879 21.7423 0.740393 22.2373 0.744907C22.7293 0.739608 23.2134 0.86921 23.637 1.11957C24.0521 1.36386 24.3982 1.70995 24.6424 2.12512C24.893 2.54869 25.0226 3.03287 25.0173 3.525C25.0219 4.02014 24.8924 4.50722 24.6424 4.93466C24.4007 5.3544 24.0543 5.70429 23.637 5.95008C23.2133 6.20093 22.7289 6.33057 22.2366 6.32474H22.2373ZM25.727 15V1.00123H30.3208V15H25.727ZM36.1361 8.65123C36.149 8.66481 36.2475 8.82582 36.4318 9.13428C36.616 9.44273 36.8558 9.83709 37.1513 10.3173C37.447 10.7973 37.7591 11.3066 38.0874 11.8453C38.4158 12.384 38.7248 12.8934 39.0144 13.3734C39.3028 13.8534 39.6314 14.3955 40.0001 15H34.9532C34.6376 14.4873 34.3516 14.024 34.0953 13.61C33.839 13.1959 33.5666 12.749 33.2779 12.2692C32.9885 11.7899 32.7024 11.3233 32.4196 10.8693C32.1368 10.4154 31.8938 10.0178 31.6905 9.67653C31.4864 9.33499 31.345 9.10494 31.2663 8.98642C31.0714 8.69231 30.956 8.35264 30.9315 8.00059C30.9511 7.66272 31.0598 7.3361 31.2466 7.05392C31.3255 6.92248 31.4701 6.68912 31.6803 6.35394C31.8906 6.01876 32.1371 5.62119 32.4196 5.16114C32.7022 4.70109 32.9883 4.23116 33.2779 3.7514C33.5675 3.27163 33.8399 2.8214 34.0953 2.40078C34.352 1.9806 34.638 1.51398 34.9532 1.00091H40.0001L36.0963 7.36937C35.9755 7.55845 35.9074 7.77636 35.8991 8.00059C35.9121 8.236 35.9943 8.46233 36.1354 8.65123H36.1361Z" fill="white"/>
<path d="M54.824 2.81428C54.5819 2.44039 54.2712 2.11593 53.9084 1.85807C53.5039 1.57445 53.0546 1.36114 52.5793 1.22713C52.0024 1.06766 51.4057 0.991429 50.8072 1.00073H45.3334V14.9994H47.4009V9.97166H50.9648C51.7691 9.98401 52.563 9.78699 53.2685 9.39989C53.9446 9.025 54.5061 8.47294 54.8929 7.80286C55.3074 7.06348 55.5149 6.22573 55.4934 5.37807C55.4952 4.91982 55.4423 4.46301 55.3359 4.01731C55.2335 3.5905 55.0605 3.18386 54.824 2.81428ZM52.9928 7.06318C52.7281 7.47892 52.3386 7.8 51.8803 7.98032C51.324 8.19095 50.7321 8.29136 50.1375 8.27604H47.4009V2.71604H50.4135C50.9889 2.69418 51.5616 2.8055 52.087 3.04136C52.505 3.24375 52.8468 3.5756 53.0617 3.98775C53.2892 4.45011 53.4008 4.96108 53.3866 5.47635C53.4091 6.03208 53.2725 6.58267 52.9928 7.06318Z" fill="white"/>
<path d="M59.6968 1.46401C59.4146 1.61517 59.139 1.75638 58.8701 1.88761C58.6013 2.01883 58.3289 2.15026 58.053 2.28192C57.7774 2.41336 57.4952 2.53201 57.2064 2.63684C56.9176 2.74166 56.6088 2.84746 56.2807 2.95229L56.7142 4.62817C57.108 4.50987 57.4656 4.39159 57.787 4.27329C58.102 4.15802 58.4109 4.02637 58.7123 3.87894C59.0081 3.73479 59.3034 3.57718 59.5983 3.40609L59.6082 3.40019V15H61.6556V1.00135H60.5927C60.2774 1.15842 59.9788 1.31263 59.6968 1.46401Z" fill="white"/>
<path d="M69.6697 7.23077V3.24838H67.937V7.23077H63.94V8.78836H67.937V12.7517H69.6697V8.78836H73.6667V7.23077H69.6697Z" fill="white"/>
</svg>

<svg xmlns="http://www.w3.org/2000/svg" viewBox="0 0 74 16"><path fill="#fff" d="M0 15V1.001h4.593V15H0ZM10.843 3.23 13.485 15H8.457L5.303 1.001h2.82a2.655 2.655 0 0 1 1.764.641c.491.404.829.964.956 1.587ZM14.175 15V1.001h4.593V15h-4.594Zm8.062-8.675a2.779 2.779 0 0 1-2.425-1.39 2.735 2.735 0 0 1-.374-1.41 2.685 2.685 0 0 1 .375-1.4 2.813 2.813 0 0 1 3.824-1.005c.415.244.761.59 1.005 1.005.251.424.38.908.375 1.4.005.495-.125.982-.375 1.41a2.8 2.8 0 0 1-1.005 1.015c-.424.25-.908.38-1.4.375ZM25.727 15V1.001h4.594V15h-4.594Zm10.41-6.349c.012.014.11.175.295.483.184.309.424.703.72 1.183a373.133 373.133 0 0 1 1.862 3.056c.289.48.617 1.023.986 1.627h-5.047c-.315-.513-.601-.976-.858-1.39-.256-.414-.528-.861-.817-1.34-.29-.48-.576-.947-.858-1.4a71.28 71.28 0 0 1-.73-1.193 20.74 20.74 0 0 0-.424-.69A2.041 2.041 0 0 1 30.932 8c.02-.338.128-.665.315-.947.079-.132.223-.365.433-.7a212.59 212.59 0 0 0 1.598-2.603l.817-1.35.858-1.4H40l-3.904 6.368c-.12.19-.189.407-.197.632.013.235.095.461.236.65h.001ZM54.824 2.814a3.52 3.52 0 0 0-.916-.956 4.39 4.39 0 0 0-1.329-.63A6.285 6.285 0 0 0 50.807 1h-5.474v13.998h2.068V9.972h3.564a4.641 4.641 0 0 0 2.303-.572 4.262 4.262 0 0 0 1.625-1.597c.414-.74.622-1.577.6-2.425a5.763 5.763 0 0 0-.157-1.36 3.935 3.935 0 0 0-.512-1.204Zm-1.831 4.25a2.33 2.33 0 0 1-1.113.916 4.588 4.588 0 0 1-1.742.296H47.4v-5.56h3.012a3.74 3.74 0 0 1 1.674.325c.418.203.76.535.975.947.227.462.339.973.325 1.488a2.92 2.92 0 0 1-.394 1.587ZM59.697 1.464c-.282.151-.558.292-.827.424l-.817.394c-.276.131-.558.25-.847.355-.288.105-.597.21-.925.315l.433 1.676c.394-.118.752-.236 1.073-.355.315-.115.624-.247.925-.394.296-.144.591-.302.886-.473l.01-.006V15h2.048V1.001h-1.063a33.13 33.13 0 0 0-.896.463ZM69.67 7.23V3.249h-1.733v3.983H63.94v1.557h3.997v3.964h1.733V8.788h3.997V7.231H69.67Z"/></svg>
